X: 1041
T: Hicaz-Uzzâl Seyir
C: Şefik Gürmeriç
O: Turkey
F: http://compmusic.upf.edu/node/140
N: hicaz-uzzal--seyir--duyek--1--sefik_gurmeric
N: makam= hicaz-uzzal
N: form= seyir
N: usul= duyek = 8/4
M: 8/4
L: 1/16
K: C _7/8B ^f ^c 
Q: 1/4=120
%%MIDI tuningsystem comma53
A2 ed c2 d2 e6 d2  | z2 e4 ^3/4f2 g2 a2 =b=c' ba  | \
w:   |   | 
a2 g2 g2 ^3/4f2 f3e eg fe  | 
w:   | 
e6 d2 c2 d2 e4  | z2 g2 a2 =b2 ga g^3/4f e4  | \
w:   |   | 
z2 ^3/4fe f2 g2 ag fe d4  | 
w:   | 
z2 e4 ^3/4f2 g4 a4  | g2 =f2 e2 d2 c6 BA  | \
w:   |   | 
z2 B4 A2 e2 d2 d2 c2  | c3B cB BA A8  | 
w:   |   | 
|


